X: 319
T: Beyâtî`ye Bir Damla
C: Necmi Kıran
O: Turkey
F: http://compmusic.upf.edu/node/140
N: beyati--sazsemaisi--aksaksemai--beyatiye_bir_damla--necmi_kiran
N: makam= beyati
N: form= sazsemaisi
N: usul= aksaksemai = 10/8
M: 10/8
L: 1/16
K: C _2/4B   
Q: 1/4=108
%%MIDI tuningsystem comma53
ded2 cBc2 Bcd/f/e/d/ c/A/B/c/d4e/d/c/B/  | 
w:  1. HANE  | 
A2BG A^3/4FGA Bcde ^3/4fga2 e2dc  | \
w:   | 
d4 cBc2 Bcd/f/e/a/ g/f/e/f/d4^3/4fg  | 
w:   | 
agfe dcg3/4a1/4g/f/ ed/e/cB dBA4ec  | \
w:   | 
ded2 cBc2 Bcd/f/e/d/ c/A/B/c/d4e/d/c/B/  | 
w:  1. HANE  | 
A2BG A^3/4FGA Bcde ^3/4fga2 e2dc  | \
w:   | 
d4 cBc2 Bcd/f/e/a/ g/f/e/f/d4^3/4fg  | 
w:   | 
agfe dcg3/4a1/4g/f/ ed/e/cB dBAB/c/ d/e/f/e/a/g/f/e/  | 
w:   | 
f4 edd2 cBcd cBc4B/c/B/A/  | B4 A2.^3/4f.g .a.bc'/d'/c'/b/ ac'_7/8b/^2/4c'/b/a/ gb/a/.a2  | 
w:  TESLİM  |   | 
(3dAd^3/4fa g2z/_b/a/g/ =f/e/d/c/B/A/G/A/ Bdc4d/c/B/A/  | 
w:   | 
GABc d2g3/4a1/4g/f/ ed/e/cB dBAB/c/ d/e/f/e/a/g/f/e/  | 
w:   | 
f4 edd2 cBcd cBc4B/c/B/A/  | B4 A2.^3/4f.g .a.bc'/d'/c'/b/ ac'_7/8b/^2/4c'/b/a/ gb/a/.a2  | 
w:  TESLİM  |   | 
(3dAd^3/4fa g2z/_b/a/g/ =f/e/d/c/B/A/G/A/ Bdc4d/c/B/A/  | 
w:   | 
GABc d2g3/4a1/4g/f/ ed/e/cB dBA6  | \
w:   | 
c4 fef4ef ga_ba gfeg  | 
w:  2. HANE  | 
f4 _2/4ed_3/4ed g^3/4fed c=Bc4_2/4BA  | \
w:   | 
ABcd e2e^3/4f gab/d'/c'/b/ a/g/f/g/e3d_7/8e/d/c/B/  | 
w:   | 
ABcd e2g3/4a1/4g/f/ ed/e/cB dBA4^3/4F/G/A/=B/  | 
w:   | 
c4 fef4ef ga_ba gfeg  | f4 _2/4ed_3/4ed g^3/4fed c=Bc4_2/4BA  | 
w:  2. HANE  |   | 
ABcd e2e^3/4f gab/d'/c'/b/ a/g/f/g/e3d_7/8e/d/c/B/  | 
w:   | 
ABcd e2g3/4a1/4g/f/ ed/e/cB dBAB/c/ d/e/f/e/a/g/f/e/  | 
w:   | 
f4 edd2 cBcd cBc4B/c/B/A/  | B4 A2.^3/4f.g .a.bc'/d'/c'/b/ ac'_7/8b/^2/4c'/b/a/ gb/a/.a2  | 
w:  TESLİM  |   | 
(3dAd^3/4fa g2z/_b/a/g/ =f/e/d/c/B/A/G/A/ Bdc4d/c/B/A/  | 
w:   | 
GABc d2g3/4a1/4g/f/ ed/e/cB dBAB/c/ d/e/f/e/a/g/f/e/  | 
w:   | 
f4 edd2 cBcd cBc4B/c/B/A/  | B4 A2.^3/4f.g .a.bc'/d'/c'/b/ ac'_7/8b/^2/4c'/b/a/ gb/a/.a2  | 
w:  TESLİM  |   | 
(3dAd^3/4fa g2z/_b/a/g/ =f/e/d/c/B/A/G/A/ Bdc4d/c/B/A/  | 
w:   | 
GABc d2g3/4a1/4g/f/ ed/e/cB dBA6  | \
w:   | 
a_1/4ba2 g^3/4ff/^3/4e/f/g/ fed/^c/d/e/ def4a/g/=f/=e/  | 
w:  3. HANE  | 
ded2 c_1/4BB/^3/4A/B/c/ BAG/^3/4F/G/A/ GAB2 c2d2  | \
w:   | 
e/d/c/B/AG ^3/4FGE3D^3/4CD E2D/E/F/G/ A^3/4ce_7/8b  | 
w:   | 
a3/2^3/4g/fg a2=g3/4a1/4g/f/ ed/e/cB dBA4d/^3/4e/^3/4f/g/  | 
w:   | 
a_1/4ba2 g^3/4ff/^3/4e/f/g/ fed/^c/d/e/ def4a/g/=f/=e/  | 
w:  3. HANE  | 
ded2 c_1/4BB/^3/4A/B/c/ BAG/^3/4F/G/A/ GAB2 c2d2  | \
w:   | 
e/d/c/B/AG ^3/4FGE3D^3/4CD E2D/E/F/G/ A^3/4ce_7/8b  | 
w:   | 
a3/2^3/4g/fg a2=g3/4a1/4g/f/ ed/e/cB dBAB/c/ d/e/f/e/a/g/f/e/  | 
w:   | 
f4 edd2 cBcd cBc4B/c/B/A/  | B4 A2.^3/4f.g .a.bc'/d'/c'/b/ ac'_7/8b/^2/4c'/b/a/ gb/a/.a2  | 
w:  TESLİM  |   | 
(3dAd^3/4fa g2z/_b/a/g/ =f/e/d/c/B/A/G/A/ Bdc4d/c/B/A/  | 
w:   | 
GABc d2g3/4a1/4g/f/ ed/e/cB dBAB/c/ d/e/f/e/a/g/f/e/  | 
w:   | 
f4 edd2 cBcd cBc4B/c/B/A/  | B4 A2.^3/4f.g .a.bc'/d'/c'/b/ ac'_7/8b/^2/4c'/b/a/ gb/a/.a2  | 
w:  TESLİM  |   | 
(3dAd^3/4fa g2z/_b/a/g/ =f/e/d/c/B/A/G/A/ Bdc4d/c/B/A/  | 
w:   | 
GABc d2g3/4a1/4g/f/ ed/e/cB dBA6  | z6  | \
w:   |  | 
.a2agag  | 
w:  4. HANE  | 
.f2fefe  | .d2dcdc  | BABc.d2  | .g2gfgf  | \
w:   |   |   |   | 
.e2eded  | 
w:   | 
.c2cBcB  | .A2.c2.e2  | .a2agag  | .f2fefe  | \
w:   |   |   |   | 
.d2dcdc  | 
w:   | 
BABc.d2  | .g2gfgf  | .e2eded  | .c2cBcB  | \
w:   |   |   |   | 
.A2.c2.e2  | 
w:   | 
a4fa  | ^g4e=g  | ^3/4f4d=f  | .e2^def^f  | \
w:   |   |   |   | 
g4eg  | ^3/4f4d=f  | e3ded  | 
w:   |   |   | 
ced2c_B  | a4fa  | ^g4e=g  | ^3/4f4d=f  | .e2^def^f  | \
w:   |   |   |   |   | 
g4eg  | 
w:   | 
^3/4f4d=f  | e3ded  | A,CEAce  | .a2agag  | \
w:   |   |   |   | 
.f2fefe  | 
w:   | 
.d2dcdc  | BABc.d2  | .g2gfgf  | .e2eded  | \
w:   |   |   |   | 
.c2cBcB  | 
w:   | 
.A2.c2.e2  | .a2agag  | .f2fefe  | .d2dcdc  | \
w:   |   |   |   | 
BABc.d2  | 
w:   | 
A4B2  | c2d2e2  | f2e2a2  | g2f2e2  | z20  | f4 edd2 cBcd cBc4B/c/B/A/  | 
w:   |   |   |   |  |  TESLİM  | 
B4 A2.^3/4f.g .a.bc'/d'/c'/b/ ac'_7/8b/^2/4c'/b/a/ gb/a/.a2  | \
w:   | 
(3dAd^3/4fa g2z/_b/a/g/ =f/e/d/c/B/A/G/A/ Bdc4d/c/B/A/  | 
w:   | 
GABc d2g3/4a1/4g/f/ ed/e/cB dBAB/c/ d/e/f/e/a/g/f/e/  | 
w:   | 
f4 edd2 cBcd cBc4B/c/B/A/  | B4 A2.^3/4f.g .a.bc'/d'/c'/b/ ac'_7/8b/^2/4c'/b/a/ gb/a/.a2  | 
w:  TESLİM  |   | 
(3dAd^3/4fa g2z/_b/a/g/ =f/e/d/c/B/A/G/A/ Bdc4d/c/B/A/  | 
w:   | 
GABc d2g3/4a1/4g/f/ ed/e/cB dBA6  | |


